icons/core/folder-add.svg

<svg width="32" height="32" viewBox="0 0 32 32" xmlns="http://www.w3.org/2000/svg"><g clip-path="url(#clip0)"><path fill-rule="evenodd" clip-rule="evenodd" d="M4.00024 4.00015C2.89567 4.00015 2.00024 4.89559 2.00024 6.00017L2.00038 26C2.00039 27.1046 2.89582 28 4.00038 28H16.9999V26L4.00038 26L4.00024 6.00015H10.5863L14.0005 9.41439C14.3756 9.78947 14.8843 10.0002 15.4147 10.0002H28.0003V15H30.0003V10.0002C30.0003 8.89561 29.1049 8.00018 28.0003 8.00018H15.4147L12.0005 4.58594C11.6254 4.21087 11.1167 4.00015 10.5863 4.00015H4.00024ZM25 23V18H27V23H32V25H27V30H25V25H20V23H25Z"/></g><defs><clipPath id="clip0"><path d="M0 0H32V32H0V0Z"/></clipPath></defs></svg>

<svg viewBox="0 0 32 32" xmlns="http://www.w3.org/2000/svg"><g clip-path="url(#clip0)"><path fill-rule="evenodd" d="M4 4a2 2 0 00-2 2v20a2 2 0 002 2h13v-2H4V6h6.586l3.415 3.414a2 2 0 001.414.586H28v5h2v-5a2 2 0 00-2-2H15.415L12 4.586A2 2 0 0010.585 4H4zm21 19v-5h2v5h5v2h-5v5h-2v-5h-5v-2h5z"/></g><defs><clipPath id="clip0"><path d="M0 0h32v32H0V0z"/></clipPath></defs></svg>
